X:1
T:Title
%%score [ ( 1 2 ) ( 3 4 ) ]
L:1/8
Q:1/4=120
M:4/4
K:Eb
V:1 treble nm="MusicXML Part"
V:2 treble 
V:3 bass nm="MusicXML Part"
V:4 bass 
V:1
"^Abide with me" G4 G2 F2 | E4 B4 | %2
w: A- bide with|me; fast|
w: Swift to its|close ebbs|
w: I need thy|pres- ence|
w: 4. I fear no|foe with|
w: 5. Hold Thou Thy|cross be-|
 c2 B2 B2"^Words by Henry F. Lyte.\nMusic by William H. Monk." A2 | G8 |[M:4/4] G4 A2 B2 | c4 B4 | %6
w: falls the e- ven-|tide;|1. The dark- ness|deep- ens:|
w: out life's litt- le|day;|2. Earth's joy grow|dim, its|
w: ev- ry pass- ing|hour;|3.What but thy|grace can|
w: Thee at hand to|bless;|4. ills have no|weight, and|
w: fore my clos- ing|eyes;|5. shine through the|gloom and|
 A2 F2 G2 =A2 | B8 | G4 G2 F2 | E4 B4 | B2 A2 A2 G2 | F8 | F4 G2 A2 | G2 F2 E2 A2 | G4 F4 | E8 |] %16
w: Lord, with me a-|bide;|1. When oth- er|help- ers|fail and com- forts|flee,|1. Help of the|help ­less, O a|­bide with|me.|
w: glo- ries pass a-|way;|2. change and de-|cay in|all a- round I|see;|2. O Thou, who|chang- est not, a-|bide with|me|
w: fall the tempt- er's|pow'r?|3. Who like thy-|self my|guide and stay can|be?|3. Thro' cloud and|sun- shine, Lord, a-|bide with|me.|
w: tears no bit- ter-|ness;|4. where is death's|sting? Where,|grave, thy vic- to-|ry?|4. I tri- umph|still, if Thou a-|bide with|me.|
w: point me to the|skies|5. hav'n's mor- ning|breaks and|earth's vain sha- dows|flee;|5. in life, in|death O Lord, a-|bide with|me.|
V:2
 E4 D2 D2 | E4 E4 | E2 D2 E2 F2 | E8 |[M:4/4] E4 E2 E2 | E4 E4 | C2 F2 E2 E2 | D8 | E4 D2 D2 | %9
 E4 E4 | E2 E2 =E2 E2 | F8 | D4 E2 D2 | E2 D2 E2 F2 | E4 D4 | E8 |] %16
V:3
 B,4 B,2 A,2 | G,4 E,4 | E,2 B,2 B,2 B,2 | B,8 |[M:4/4] B,4 A,2 G,2 | A,4 G,4 | A,2 B,2 B,2 E,2 | %7
 F,8 | (G,2 A,2) B,2 A,2 | G,4 (E2 D2) | C2 C2 C2 B,2 | A,8 | B,4 B,2 B,2 | %13
 B,2"^Edited by Christoph Lahme, (2009/6/18)" A,2 G,2 C2 |"^CPDL copyright license" B,6 A,2 | %15
 G,8 |] %16
V:4
 E,4 B,,2 B,,2 | C,4 G,,4 | A,,2 B,,2 C,2 D,2 | E,8 |[M:4/4] (E,2 D,2) C,2 B,,2 | A,,4 E,4 | %6
 F,2 D,2 E,2 C,2 | B,,8 | E,4 B,,2 B,,2 | C,4 G,,4 | A,,3 B,, C,2 C,2 | F,8 | A,4 G,2 F,2 | %13
 E,2 B,,2 C,2 A,,2 | B,,4 B,,4 | E,8 |] %16

